X:1
T:The Fatal Snowstorm
M:4/4
L:1/4
K:C
 C/2D/2| EE/2-D/2 C E| G3/2- F/2 E G| c c B c| A3|A/2-B/2| c2 B c|\
 A- B c d| d c A A| G3| G| A G A B| c3/2 d/2 cc/2-B/2| A GG/2-F/2 E|\
 E2- D|C/2-D/2| EE/2-D/2 C c| A2 G G| E3/2 C/2 D3/2 B,/2| C2 z||
